icons/1_Primary/Linkedin.svg

<svg xmlns="http://www.w3.org/2000/svg" width="1024" height="1024" fill="none">
   <g clip-path="url(#a)">
      <path fill="#728DBE" d="M512 1024c282.77 0 512-229.23 512-512S794.77 0 512 0 0 229.23 0 512s229.23 512 512 512Z"/>
      <path fill="#fff" d="M693.05 693.16h-76v-119c0-28.39-.58-64.92-39.59-64.92-39.61 0-45.66 30.89-45.66 62.82v121.1h-76V448.38h73v33.37h1c10.2-19.24 35-39.54 72-39.54 77 0 91.21 50.66 91.21 116.6v134.35h.04Zm-323-278.28a44.122 44.122 0 0 1-43.274-52.72 44.122 44.122 0 0 1 79.949-15.926 44.123 44.123 0 0 1 7.445 24.506 44.083 44.083 0 0 1-12.89 31.215 44.063 44.063 0 0 1-31.2 12.925h-.03Zm38.09 278.28H332V448.38h76.18l-.04 244.78ZM731.06 256h-437.2c-20.93 0-37.86 16.54-37.86 37v439c0 20.43 16.93 37 37.86 37H731c20.9 0 38-16.52 38-37V293c0-20.41-17.1-37-38-37h.06Z"/>
   </g>
   <defs>
      <clipPath id="a">
         <path fill="#fff" d="M0 0h1024v1024H0z"/>
      </clipPath>
   </defs>
</svg>

<svg width="1024" height="1024" viewBox="0 0 1024 1024" fill="none" xmlns="http://www.w3.org/2000/svg">
<g clip-path="url(#clip0_2_2685)">
<path d="M512 1024C794.77 1024 1024 794.77 1024 512C1024 229.23 794.77 0 512 0C229.23 0 0 229.23 0 512C0 794.77 229.23 1024 512 1024Z" fill="#728DBE"/>
<path d="M693.05 693.16H617.05V574.16C617.05 545.77 616.47 509.24 577.46 509.24C537.85 509.24 531.8 540.13 531.8 572.06V693.16H455.8V448.38H528.8V481.75H529.8C540 462.51 564.8 442.21 601.8 442.21C678.8 442.21 693.01 492.87 693.01 558.81V693.16H693.05ZM370.05 414.88C361.325 414.88 352.795 412.293 345.54 407.446C338.285 402.599 332.63 395.709 329.29 387.649C325.95 379.588 325.076 370.718 326.776 362.16C328.477 353.602 332.677 345.741 338.845 339.57C345.014 333.398 352.873 329.195 361.43 327.49C369.987 325.786 378.858 326.656 386.92 329.993C394.982 333.329 401.874 338.981 406.725 346.234C411.575 353.487 414.166 362.015 414.17 370.74C414.179 376.535 413.045 382.275 410.834 387.631C408.622 392.987 405.375 397.855 401.28 401.955C397.185 406.054 392.321 409.307 386.967 411.524C381.613 413.742 375.875 414.883 370.08 414.88H370.05ZM408.14 693.16H332V448.38H408.18L408.14 693.16ZM731.06 256H293.86C272.93 256 256 272.54 256 293V732C256 752.43 272.93 769 293.86 769H731C751.9 769 769 752.48 769 732V293C769 272.59 751.9 256 731 256H731.06Z" fill="white"/>
</g>
<defs>
<clipPath id="clip0_2_2685">
<rect width="1024" height="1024" fill="white"/>
</clipPath>
</defs>
</svg>
